**kern	**kern
*staff2	*staff1
*clefF4	*clefG2
*k[b-e-a-]	*k[b-e-a-]
*M3/4	*M3/4
*c:	*c:
=	=
16CLL	(4gg
16e-	.
16c	.
16e-JJ	.
16GLL	4eee-
16e-	.
16c	.
16e-JJ	.
16GLL	4ccc
16e-	.
16c	.
16e-JJ	.
=226	=226
16GGLL	4bb
16d	.
16B	.
16dJJ	.
16GLL	4ddd
16d	.
16B	.
16dJJ	.
16GLL	4gg
16d	.
16B	.
16dJJ	.
=227	=227
16CLL	4bb-
16e	.
16B-	.
16eJJ	.
16GLL	4ddd-
16e	.
16B-	.
16eJJ	.
16GLL	4bb-
16e	.
16B-	.
16eJJ	.
=228	=228
16FLL	4aa
16f	.
16c	.
16fJJ	.
16ALL	4ccc
16f	.
16c	.
16fJJ	.
16ALL	4ff
16f	.
16c	.
16fJJ	.
=229	=229
16DLL	4ff#
16c	.
16A	.
16cJJ	.
16F#LL	4ee-
16c	.
16A	.
16cJJ	.
16F#LL	4cc
16c	.
16A	.
16cJJ	.
=230	=230
16GGLL	4b
16A-	.
16F	.
16A-JJ	.
16DLL	4a-
16A-	.
16F	.
16A-JJ	.
16DLL	4f
16A-	.
16F	.
16A-JJ	.
*	*clefF4
=231	=231
16BBLL	4d
16A-	.
16F	.
16A-JJ	.
16AA-LL	4F
16D	.
16BB	.
16DJJ	.
16GGLL	4G
16AA-	.
16GG	.
16FFJJ	.
=232	=232
16EE-LL	4C
16DD	.
16EE-	.
16CCJJ	.
16BBBLL	4GG
16GGG	.
16AAA	.
16BBBJJ	.
4CC	4C)
*	*clefG2
=233||	=233||
*-	*-
